X: 10
T: Max Hobart's [Dm]
C: Len Bittenson 2017
M: 6/8
Q: 1/4=180
L: 1/8
K: Dm
 z6|:"Dm"DA,D DA,D |DA,F "A"E2 E | "Dm"DA,D "F"DFG | "Dm"AGF "A"E2^C|
 "Dm"DA,D DA,D  | DA,F "A"E2E | "Dm"DA,F "F"DFG |1 "A"AE^C "Dm"D3 :|2 "A"AE^C "Dm"DGA||
|: "Gm"BGB BGB |"Dm"AFA AFA |"A7"GEG GEG |"Dm"FA,D FGA |
 "Gm"BGB BGB |"Dm"AFA AFA |"A"GE^C A,EG |1 "Dm"FE^C DGA :|2"Dm"FE^CD3 ||

%%sep 1 1 500

